Flat-Remix-Blue/mimetypes/scalable/text-x-qml.svg

<svg xmlns="http://www.w3.org/2000/svg" xmlns:xlink="http://www.w3.org/1999/xlink" width="36pt" height="36pt" version="1.1" viewBox="0 0 36 36"> <defs> <clipPath id="clip1"> <path d="M 20 2 L 31 2 L 31 13 L 20 13 Z M 20 2"/> </clipPath> <clipPath id="clip2"> <path d="M 20.515625 2.625 L 30.328125 12.4375 L 22.023438 12.4375 C 21.292969 12.4375 20.515625 11.660156 20.515625 10.929688 Z M 20.515625 2.625"/> </clipPath> <image id="image6" width="36" height="36" xlink:href="data:image/png;base64,iVBORw0KGgoAAAANSUhEUgAAACQAAAAkCAYAAADhAJiYAAAABmJLR0QA/wD/AP+gvaeTAAAAmklEQVRYhe3T0QqCQBBG4aOtYEoUvf9Lildltl00C4tkbBeTIP+BAUEYP1YW1Pcqh53B9kbgaVPcwQF0tAmGSrMZ6AKcDQXw+AUVHEAtcAUaewYYgYmC3+cBCkAPnDJQMcoDVNnebgEqQnmAclTz4d0I3P4JStc9AjXvk4qLWQV53LLeEOl05gw4A3dgcPiuUkoppZRSSqk99gLWvSJpuDnlsAAAAABJRU5ErkJggg=="/> <clipPath id="clip3"> <path d="M 19 15 L 24 15 L 24 24 L 19 24 Z M 19 15"/> </clipPath> <clipPath id="clip4"> <path d="M 29.136719 19.933594 C 29.136719 26.085938 24.148438 31.070312 18 31.070312 C 11.851562 31.070312 6.859375 26.085938 6.859375 19.933594 C 6.859375 13.777344 11.851562 8.792969 18 8.792969 C 24.148438 8.792969 29.136719 13.777344 29.136719 19.933594 Z M 29.136719 19.933594"/> </clipPath> <clipPath id="clip5"> <path d="M 12 14 L 20 14 L 20 26 L 12 26 Z M 12 14"/> </clipPath> <clipPath id="clip6"> <path d="M 29.136719 19.933594 C 29.136719 26.085938 24.148438 31.070312 18 31.070312 C 11.851562 31.070312 6.859375 26.085938 6.859375 19.933594 C 6.859375 13.777344 11.851562 8.792969 18 8.792969 C 24.148438 8.792969 29.136719 13.777344 29.136719 19.933594 Z M 29.136719 19.933594"/> </clipPath> </defs> <g> <path style="fill:rgb(4.705%,63.137%,36.862%)" d="M 7.347656 3.152344 C 6.675781 3.152344 6.042969 3.785156 6.042969 4.457031 L 6.042969 31.847656 C 6.042969 32.480469 6.714844 33.152344 7.347656 33.152344 L 28.21875 33.152344 C 28.851562 33.152344 29.523438 32.480469 29.523438 31.847656 L 29.523438 11.632812 L 21.042969 3.152344 Z M 7.347656 3.152344"/> <g clip-path="url(#clip1)"> <g clip-path="url(#clip2)"> <use xlink:href="#image6"/> </g> </g> <path style="fill:rgb(3.137%,44.313%,25.882%)" d="M 21.042969 3.152344 L 29.523438 11.632812 L 22.347656 11.632812 C 21.714844 11.632812 21.042969 10.960938 21.042969 10.328125 Z M 21.042969 3.152344"/> <g clip-path="url(#clip3)"> <g clip-path="url(#clip4)"> <path style="fill:rgb(100.000%,100.000%,100.000%)" d="M 20.515625 22.136719 C 20.515625 21.320312 20.515625 18.699219 20.515625 18.699219 L 19.824219 18.699219 L 19.824219 17.554688 C 20.863281 17.554688 20.515625 17.554688 21.039062 15.589844 L 22.425781 15.589844 L 22.425781 17.554688 L 23.8125 17.554688 L 23.8125 18.699219 L 22.425781 18.699219 L 22.425781 21.644531 C 22.425781 21.953125 22.492188 22.179688 22.625 22.335938 C 22.757812 22.488281 22.9375 22.566406 23.15625 22.566406 C 23.433594 22.59375 23.8125 22.464844 23.8125 22.464844 L 23.8125 23.609375 C 23.777344 23.632812 22.105469 24.113281 21.210938 23.609375 C 20.34375 23.117188 20.515625 22.136719 20.515625 22.136719 M 20.515625 22.136719"/> </g> </g> <g clip-path="url(#clip5)"> <g clip-path="url(#clip6)"> <path style="fill:rgb(100.000%,100.000%,100.000%)" d="M 15.675781 14.125 C 14.5 14.125 13.625 14.546875 13.050781 15.386719 C 12.476562 16.21875 12.1875 17.421875 12.1875 19 C 12.1875 20.613281 12.476562 21.835938 13.050781 22.683594 C 13.449219 23.273438 13.988281 23.660156 14.664062 23.835938 C 14.664062 23.835938 14.800781 23.828125 14.8125 23.964844 C 15.042969 25.75 16.222656 25.75 17.566406 25.75 C 17.566406 25.75 17.738281 25.75 17.738281 25.585938 L 17.738281 24.605469 C 17.738281 24.441406 17.566406 24.441406 17.566406 24.441406 C 16.894531 24.441406 16.71875 24.484375 16.542969 23.847656 C 16.773438 23.792969 16.980469 23.722656 17.179688 23.628906 C 17.621094 23.410156 17.988281 23.09375 18.273438 22.675781 C 18.5625 22.253906 18.773438 21.738281 18.914062 21.121094 C 19.058594 20.503906 19.125 19.800781 19.125 19 C 19.125 17.40625 18.835938 16.195312 18.25 15.371094 C 17.664062 14.539062 16.804688 14.125 15.675781 14.125 M 15.664062 15.054688 C 15.914062 15.054688 16.160156 15.152344 16.320312 15.320312 C 16.414062 15.417969 16.503906 15.523438 16.574219 15.679688 C 16.621094 15.785156 16.667969 15.910156 16.703125 16.042969 C 16.792969 16.402344 16.871094 16.710938 16.910156 17.230469 C 16.945312 17.75 16.984375 18.34375 16.984375 19.003906 C 16.984375 19.667969 16.945312 20.265625 16.910156 20.792969 C 16.871094 21.316406 16.792969 21.632812 16.703125 22 C 16.667969 22.140625 16.621094 22.269531 16.574219 22.382812 C 16.566406 22.398438 16.558594 22.414062 16.550781 22.425781 C 16.480469 22.558594 16.40625 22.65625 16.320312 22.746094 C 16.164062 22.921875 15.910156 23.023438 15.664062 23.023438 C 15.421875 23.023438 15.164062 22.925781 15.007812 22.746094 C 14.851562 22.566406 14.714844 22.320312 14.621094 21.964844 C 14.527344 21.605469 14.453125 21.296875 14.414062 20.78125 C 14.378906 20.257812 14.332031 19.664062 14.332031 19 C 14.332031 18.34375 14.375 17.757812 14.414062 17.246094 C 14.453125 16.730469 14.53125 16.429688 14.621094 16.078125 C 14.714844 15.730469 14.855469 15.488281 15.007812 15.316406 C 15.164062 15.148438 15.417969 15.050781 15.664062 15.050781"/> </g> </g> </g> </svg>

<svg width="36pt" height="36pt" version="1.1" viewBox="0 0 36 36" xmlns="http://www.w3.org/2000/svg"><defs><filter id="a" x="-.192" y="-.192" width="1.384" height="1.384" color-interpolation-filters="sRGB"><feGaussianBlur stdDeviation="0.67843748"/></filter><clipPath id="e"><path d="m19 15h5v9h-5z"/></clipPath><clipPath id="d"><path d="m29.137 19.934c0 6.1523-4.9883 11.137-11.137 11.137s-11.141-4.9844-11.141-11.137c0-6.1562 4.9922-11.141 11.141-11.141s11.137 4.9844 11.137 11.141z"/></clipPath><clipPath id="c"><path d="m12 14h8v12h-8z"/></clipPath><clipPath id="b"><path d="m29.137 19.934c0 6.1523-4.9883 11.137-11.137 11.137s-11.141-4.9844-11.141-11.137c0-6.1562 4.9922-11.141 11.141-11.141s11.137 4.9844 11.137 11.141z"/></clipPath></defs><path d="m7.3477 3.1523c-0.67188 0-1.3047 0.63281-1.3047 1.3047v27.391c0 0.63281 0.67188 1.3047 1.3047 1.3047h20.871c0.63281 0 1.3047-0.67188 1.3047-1.3047v-20.215l-8.4805-8.4805z" fill="#0ba05d"/><path d="m20.668 3.5272 8.4805 8.4805h-7.1758c-0.63281 0-1.3047-0.67187-1.3047-1.3047z" filter="url(#a)" opacity=".2"/><path d="m21.043 3.1523 8.4805 8.4805h-7.1758c-0.63281 0-1.3047-0.67187-1.3047-1.3047z" fill="#077041"/><g clip-path="url(#e)"><g clip-path="url(#d)"><path d="m20.516 22.137v-3.4375h-0.69141v-1.1445c1.0391 0 0.69141 0 1.2148-1.9648h1.3867v1.9648h1.3867v1.1445h-1.3867v2.9453c0 0.30859 0.066407 0.53516 0.19922 0.69141 0.13281 0.15234 0.3125 0.23047 0.53125 0.23047 0.27734 0.027344 0.65625-0.10156 0.65625-0.10156v1.1445c-0.035156 0.023437-1.707 0.50391-2.6016 0-0.86719-0.49219-0.69531-1.4727-0.69531-1.4727" fill="#fff"/></g></g><g clip-path="url(#c)"><g clip-path="url(#b)"><path d="m15.676 14.125c-1.1758 0-2.0508 0.42188-2.625 1.2617-0.57422 0.83203-0.86328 2.0352-0.86328 3.6133 0 1.6133 0.28906 2.8359 0.86328 3.6836 0.39844 0.58984 0.9375 0.97656 1.6133 1.1523 0 0 0.13672-0.007813 0.14844 0.12891 0.23047 1.7852 1.4102 1.7852 2.7539 1.7852 0 0 0.17188 0 0.17188-0.16406v-0.98047c0-0.16406-0.17188-0.16406-0.17188-0.16406-0.67188 0-0.84766 0.042969-1.0234-0.59375 0.23047-0.054687 0.4375-0.125 0.63672-0.21875 0.44141-0.21875 0.80859-0.53516 1.0938-0.95312 0.28906-0.42188 0.5-0.9375 0.64062-1.5547 0.14453-0.61719 0.21094-1.3203 0.21094-2.1211 0-1.5938-0.28906-2.8047-0.875-3.6289-0.58594-0.83203-1.4453-1.2461-2.5742-1.2461m-0.011719 0.92969c0.25 0 0.49609 0.097656 0.65625 0.26562 0.09375 0.097657 0.18359 0.20313 0.25391 0.35938 0.046875 0.10547 0.09375 0.23047 0.12891 0.36328 0.089844 0.35938 0.16797 0.66797 0.20703 1.1875 0.035156 0.51953 0.074219 1.1133 0.074219 1.7734 0 0.66406-0.039063 1.2617-0.074219 1.7891-0.039062 0.52344-0.11719 0.83984-0.20703 1.207-0.035156 0.14062-0.082031 0.26953-0.12891 0.38281-0.007813 0.015626-0.015625 0.03125-0.023438 0.042969-0.070312 0.13281-0.14453 0.23047-0.23047 0.32031-0.15625 0.17578-0.41016 0.27734-0.65625 0.27734-0.24219 0-0.5-0.097657-0.65625-0.27734-0.15625-0.17969-0.29297-0.42578-0.38672-0.78125-0.09375-0.35938-0.16797-0.66797-0.20703-1.1836-0.035156-0.52344-0.082031-1.1172-0.082031-1.7812 0-0.65625 0.042969-1.2422 0.082031-1.7539 0.039063-0.51562 0.11719-0.81641 0.20703-1.168 0.09375-0.34766 0.23438-0.58984 0.38672-0.76172 0.15625-0.16797 0.41016-0.26562 0.65625-0.26562" fill="#fff"/></g></g></svg>
